X: 1975
T: Arthur's Seat
R: hornpipe
M: 4/4
K: Gmajor
e>f|g>dB>G F>GD>C|B,<B,D>G B>dg>d|^c>d=c>d A>dG>A|F>GE>F D>de>f|
g>dB>G F>GD>C|B,<B,D>G B>dg>d|e>cG>E C>gf>e|(3ded (3cBA G2:|:
=f2|e>^d e>B c>B c>e|d>^c d>=c B>G B>d|c>B c>B A>B A>G|F>A d>^c d>^d ef|
g>dB>G F>GD>C|B,<B,D>G B>dg>d|e>cG>E C>gf>e|(3ded (3cBA G2:|
E>F|G2 B2 B>d ^c>d|F2A2 A>d ^c>d|G2e>f g2 f>e|(3ded (3cBA G>D E>F|
G2 B2 B>d ^c>d|F2A2 A>d ^c>d|G2e>f g2 f>e|(3ded (3cBA G>D:|

